!!!COM: Haydn, Franz Joseph
!!!OTL: String Quartet in G Minor
!!!OPS: Opus 74
!!!ONM: No. 3
!!!OMD: Menuetto: Allegretto
!!!OMV: 3
!!!SCT: H III:74
!!!SCA: Thematisch-bibliographisches Werkevererzeichnis (A. van Hoboken)
!!!YOR: Trautwein Edition
!!!ENC: Frances Bennion
!!!CDT: 1732/3/31/-1809/5/31/
!!!CNT: Oesterreich
!!!YEC: Copyright (c) 1994, 2000 Center for Computer Assisted Research in the Humanities
!!!YEM: Rights to all derivative editions reserved.
!!!YEM: Refer to licensing agreement for further details.
!!!YEN: United States of America
**kern	**kern	**kern	**kern
*k[f#]	*k[f#]	*k[f#]	*k[f#]
*G:	*G:	*G:	*G:
*clefF4	*clefC3	*clefF	*clefF
*M3/4	*M3/4	*M3/4	*M3/4
2.r	2r	2r	2r
.	4f#	4cc	4ee
=1	=1	=1	=1
2.r	4g	4b	4dd
.	4d#	4a	4cc
.	4e	4g	4b
=2	=2	=2	=2
4C	4c	4e	4a
4D	4B	4d	4g
4C	4A	4d	4f#
=3	=3	=3	=3
4BB	4G	2.d	8g
.	.	.	8d
4AA	4F#	.	8a
.	.	.	8d
4GG	4G	.	8b
.	.	.	8d
=4	=4	=4	=4
4FF#	4A	4d	4cc
4r	4r	2r	2r
4c	4e	.	.
=5	=5	=5	=5
4B	4d	4r	4r
4A	4c	4r	4r
4G	4B	4e	4ee
=6	=6	=6	=6
4F#	4A	4d	4dd
4E	4G	4c#	4cc#
4F#	4A	4d	4dd
=7	=7	=7	=7
4G	4B	8e	8ee
.	.	8b	8bb
4A	4F#	8d	8dd
.	.	8a	8aa
4AA	8G	8A	8a
.	8E	8c#	8cc#
=8	=8	=8	=8
4D	4D	4d	4dd
4r	4r	4r	4r
4c#	4a	4g	4ee
=9	=9	=9	=9
4c	2d	4a	4ff#
4B	.	4b	4gg
4A	4c	4cc	4aa
=10	=10	=10	=10
4G	4B	2dd	4bb
4F#	4A	.	4ccc
4d	4f	4b	4gg#
=11	=11	=11	=11
4c	4e	4cc	4aa
4B	4d	4dd	4bb
4A	4c	4ee	4ccc
=12	=12	=12	=12
2G#	2B	2.ee	4ddd
.	.	.	4eee
4A	4c	.	4ccc
=13	=13	=13	=13
4F#	4A	2dd	4ddd
4G	4B	.	4bb
4C	4e	4aa	4ccc
=14	=14	=14	=14
2D	2d	4gg	4bb
.	.	4ff#	4aa
4r	4r	4ee	4gg
=15	=15	=15	=15
2.r	2.r	4dd	4ff#
.	.	4cc	4ee
.	.	4b	4dd
=16	=16	=16	=16
2.r	2.r	4a#	4cc#
.	.	4b	4dd
.	.	4cc	4ee
=17	=17	=17	=17
2.r	2.r	4b	4dd
.	.	4a	4cc
.	.	4g	4b
=18	=18	=18	=18
2.r	4r	4d	4a
.	4r	4g	4b
.	4c	4e	4r
=19	=19	=19	=19
2.r	4B	4d	2.r
.	4A	4c	.
.	4G	4B	.
=20	=20	=20	=20
4r	4D	4A	4r
4r	4G	4B	4r
4E	4r	4g	4g
=21	=21	=21	=21
4D	4r	4g	2a
4C	4r	4f#	.
4BB	4d	4g#	4b
=22	=22	=22	=22
4AA	4c	4a	4cc
4GG	4B	4b	4dd
4FF#	4A	4cc	4ee
=23	=23	=23	=23
4GG	4B	4b	8dd
.	.	.	8b
4GG	2r	4dd	8gg
.	.	.	8dd
4GG	.	4gg	8bb
.	.	.	8gg
=24	=24	=24	=24
8G	2.r	4bb	4ddd
8D	.	.	.
8B	.	4bb	4ddd
8G	.	.	.
8d	.	4bb	4ddd
8r	.	.	.
=25	=25	=25	=25
2.r	8f#	4ccc	4ddd
.	8d	.	.
.	8a	4ccc	4ddd
.	8f#	.	.
.	8cc	4ccc	4ddd
.	8r	.	.
=26	=26	=26	=26
8GG	2.r	4bb	4ddd
8DD	.	.	.
8BB	.	4bb	4ddd
8GG	.	.	.
8D	.	4bb	4ddd
8r	.	.	.
=27	=27	=27	=27
2.r	8F#	4ccc	4ddd
.	8D	.	.
.	8A	4ccc	4ddd
.	8F#	.	.
.	8c	4ccc	4ddd
.	8r	.	.
=28	=28	=28	=28
4B	4b	4bb	8bb
.	.	.	8ddd
4G	4g	4gg	8gg
.	.	.	8bb
4E	4e	4ee	8ee
.	.	.	8gg
=29	=29	=29	=29
4C	4c	4cc	8cc
.	.	.	8ee
4AA	4A	4a	8a
.	.	.	8cc
4FF#	4F#	4f#	8f#
.	.	.	8a
=30	=30	=30	=30
4DD	4D	2.d	8d
.	.	.	8f#
4C	8F#	.	8a
.	8A	.	8f#
4BB	4G	.	8g
.	.	.	8dd
=31	=31	=31	=31
4r	4r	4r	8d
.	.	.	8f#
4C	8F#	4d	8a
.	8A	.	8f#
4BB	4G	4d	8g
.	.	.	8dd
=32	=32	=32	=32
4r	4r	4r	8d
.	.	.	8f#
4C	8F#	4d	8a
.	8A	.	8f#
4BB	8G	8d	8g
.	8B	8dd	8gg
=33	=33	=33	=33
2C	4c	8ee	8ee
.	.	8a	8a
.	4r	8dd	8dd
.	.	8g	8g
4D	8F#	8cc	8cc
.	8A	8f#	8f#
=34	=34	=34	=34
4G	4G	4g	4g
4GG	2r	2r	4r
*g:	*g:	*g:	*g:
4r	.	.	4d
=35	=35	=35	=35
2.r	4r	4r	4dd
.	4r	4r	4dd
.	4G	4B-	4dd
=36	=36	=36	=36
2.r	4g	4b-	4dd
.	4f#	4a	4dd
.	4f	4a-	4dd
=37	=37	=37	=37
2.r	2e-	2.g	4ee-
.	.	.	8gg
.	.	.	8ee-
.	4E-	.	4cc#
=38	=38	=38	=38
2.r	4D	2f#	4dd
.	4d	.	4a
.	4d	4g#	4b
=39	=39	=39	=39
4r	4d	4a	4cc
4r	4d	4e	4g
4DD	4d	4f#	4a
=40	=40	=40	=40
4GG	2.d	2.g	2.b-
4GG	.	.	.
4GG	.	.	.
=41	=41	=41	=41
4GG	2.d	2.f	2b
8D	.	.	.
8BB	.	.	.
4GG#	.	.	4r
=42	=42	=42	=42
[2.AA	2.F	2.d 2.f	8a
.	.	.	8aa
.	.	.	8ff
.	.	.	8dd
.	.	.	8a
.	.	.	8f
=43	=43	=43	=43
2.AA]	2.G	2.e 2.c#	8e
.	.	.	8b-
.	.	.	8g
.	.	.	8e
.	.	.	8c#
.	.	.	8A
=44	=44	=44	=44
8FF	4F	4d	4d
8A	.	.	.
8F	4r	4r	4r
8D	.	.	.
8AA	4A	4dd	4ff
8FF	.	.	.
=45	=45	=45	=45
8GG	4B-	4dd	4ee
8B-	.	.	.
8G	4r	4r	4r
8E	.	.	.
8C#	4G	8e	4aa
8AA	.	8cc#	.
=46	=46	=46	=46
4D	4F	4dd	4dd
2r	2r	2r	4r
.	.	.	4B-
=47	=47	=47	=47
2.r	4r	4r	4b-
.	4r	4r	4b-
.	4C	4e-	4b-
=48	=48	=48	=48
2.r	4c	4ee-	4b-
.	4c	4ee-	4a
.	4c	4ee-	4a-
=49	=49	=49	=49
2.r	2B	4ee-	2.g
.	.	4dd	.
.	4B-	4ee	.
=50	=50	=50	=50
4r	4A	4ff	4cc
4r	4d	2ff#	4b-
4D	4c	.	4a
=51	=51	=51	=51
2E-	4B-	2gg	4g
.	4c	.	4a
4D	4d	4ff	4b
=52	=52	=52	=52
4C	4e-	2.ee-	[2.cc
8E-	4g	.	.
8C	.	.	.
4AA	[4f	.	.
=53	=53	=53	=53
4BB-	4f]	2.dd	4cc]
8d	4f	.	4b-
8B-	.	.	.
8G	8g	.	[4b-
8E	8e	.	.
=54	=54	=54	=54
[2.F	2.f	2.cc	4b-]
.	.	.	4a
.	.	.	4f
=55	=55	=55	=55
2.F_	2.c	2.e- 2.a	8gg
.	.	.	8ff
.	.	.	8ee-
.	.	.	8cc
.	.	.	8a
.	.	.	8e-
=56	=56	=56	=56
2.F_	2.d	2.d 2.b-	8d
.	.	.	8gg
.	.	.	8ff
.	.	.	8dd
.	.	.	8b-
.	.	.	8f
=57	=57	=57	=57
2.F_	2.d-	2.B- 2.e	8e
.	.	.	8bb-
.	.	.	8gg
.	.	.	8ee
.	.	.	8dd-
.	.	.	8b-
=58	=58	=58	=58
8F]	8c	8A 8f	8a
8e-	8ee-	8ee-	8ee-
8c	8cc	8cc	8cc
8A	8a	8a	8a
8F	8f	8f	8f
8E-	8e-	8e-	8e-
=59	=59	=59	=59
8D	8d	8d	8d
8B-	8b-	8b-	8b-
8E-	8e-	8e-	8e-
8c	8cc	8cc	8cc
8F	8f	8f	8f
8d	8dd	8dd	8dd
=60	=60	=60	=60
8G	8g	8g	8g
8e-	8ee-	8ee-	8ee-
8A	8a	8a	8a
8e-	8ee-	8ee-	8ee-
8d	8dd	8dd	8dd
8B-	8b-	8b-	8b-
=61	=61	=61	=61
4E-	8g	8cc	8g
.	8r	8r	8cc
4F	8d	8b-	8f
.	8r	8r	8b-
4F	8c	8a	8e-
.	8r	8r	8a
=62	=62	=62	=62
4BB-	4d	4b-	4b-
4B-	2r	2r	4r
4r	.	.	4d
=63	=63	=63	=63
2.r	4r	4r	4dd
.	4r	4r	4dd
.	4G	4B-	4dd
=64	=64	=64	=64
2.r	4g	4b-	4dd
.	4f#	4a	4dd
.	4f	4a-	4dd
=65	=65	=65	=65
4r	2.e-	2.g	4ee-
4r	.	.	8gg
.	.	.	8ee-
4GG	.	.	4cc
=66	=66	=66	=66
4G	2.d	4f	2.b
4G	.	8a-	.
.	.	8f	.
4G	.	8d	.
.	.	8f	.
=67	=67	=67	=67
4A-	2c	2.e-	2.cc
8c	.	.	.
8A-	.	.	.
4F#	4f#	.	.
=68	=68	=68	=68
4G	2g	4d	4b
4E	.	4d-	4b-
4F	[4f	4c	4a
=69	=69	=69	=69
4D	4f]	4B	4a-
4E-	4e-	4c	4g
4E-	[4B-	4c#	4g
=70	=70	=70	=70
[2.D	4B-]	4d	8g
.	.	.	8ddd
.	4g	4b-	8bb-
.	.	.	8gg
.	4g	4b-	8dd
.	.	.	8b-
=71	=71	=71	=71
2.D]	4f#	4a	8a
.	.	.	8ee-
.	4f#	4a	8cc
.	.	.	8a
.	4f#	4a	8f#
.	.	.	8d
=72	=72	=72	=72
8BB-	4g	4g	4g
8d	.	.	.
8B-	4r	4r	4r
8G	.	.	.
8D	4d	4g	4b-
8BB-	.	.	.
=73	=73	=73	=73
8C	4e-	4g	4a
8E-	.	.	.
8C	4r	4r	4r
8AA	.	.	.
8FF#	4c	8a	4dd
8DD	.	8f#	.
=74	=74	=74	=74
4GG	4B-	4g	4g
2r	2r	2r	2r
==	==	==	==
*-	*-	*-	*-
!!!RWG1: This file contains only pitch and duration data.
!!!RWG2: Transposing instruments are not transposed.
!!!RWG3: Spines may have incompatible meters.
!!!RWG4: Durations of rests and tied notes may be interpreted.
!!!RWG: Key is interpreted using the Humdrum key tool.
!!!GTL: 6 Quartetti ("Apponyi")
!!!OPT: The Rider
!!!AFT: stage1
!!!END: 1997/04/15
!!!KEY: 414931479
!!!EMD: Converted from MuseData to Humdrum Dec 16, 2000, by Andreas Kornstaedt using muse2kern.
!!!EMD: Manual editing by Craig Sapp, Nov 2001
